assets/react-icon.svg

<svg xmlns="http://www.w3.org/2000/svg" fill="none" viewBox="0 0 40 36">
  <path fill="#2A2238" d="M20.5 22c-1.9295 0-3.5-1.57-3.5-3.5s1.5705-3.5 3.5-3.5 3.5 1.57 3.5 3.5-1.5705 3.5-3.5 3.5Zm0-6.5c-1.6545 0-3 1.3455-3 3s1.3455 3 3 3 3-1.3455 3-3-1.3455-3-3-3Z"/>
  <path fill="#2A2238" d="M12.2355.497c2.247 0 4.998 1.455 7.766 3.9335 2.7675-2.4765 5.517-3.93 7.762-3.93.8115 0 1.5495.185 2.193.5495 1.078.611 1.826 1.6715 2.223 3.153.5385 1.9585.4255 4.37-.217 7.04 4.611 1.5405 7.5375 3.971 7.5375 6.7555 0 2.7845-2.9265 5.215-7.538 6.756.6705 2.8865.783 5.363.217 7.0395-.397 1.481-1.1445 2.542-2.2215 3.153-.6445.365-1.23.5515-2.041.5515h-.2085c-2.246 0-4.941-1.455-7.708-3.9305-2.7675 2.478-5.5175 3.932-7.7635 3.932-.8115 0-1.5495-.185-2.193-.5495-1.079-.6125-1.8275-1.6745-2.224-3.157-.595-1.8585-.475-4.3015.217-7.0395C3.426 23.213.5 20.783.5 17.9985c0-2.784 2.926-5.2145 7.536-6.7555-.3435-1.5295-.563-2.9495-.5705-4.2445-.006-1.023.1335-1.9745.3535-2.795.397-1.483 1.145-2.545 2.224-3.157.643-.365 1.381-.5495 2.1925-.5495ZM9.479 10.8055c1.7385-.4775 3.669-.8385 5.7415-1.0585 1.191-1.605 2.4375-3.048 3.693-4.292-2.436-2.173-4.808-3.4585-6.678-3.4585-.5495 0-1.0375.119-1.452.3545-.7165.4065-1.226 1.16-1.5155 2.2405-.429 1.601-.3315 3.765.211 6.214Zm21.0405-.0005c.5425-2.449.64-4.6135.211-6.2145-.289-1.0785-.7985-1.8305-1.5135-2.236C28.802 2.119 28.3125 2 27.7635 2c-1.8685 0-4.239 1.284-6.6745 3.455 1.255 1.244 2.5 2.687 3.69 4.2915 2.0715.22 4.002.581 5.7405 1.0585Zm-13.281-1.2235c.901-.0535 1.8045-.1 2.744-.1.9395 0 1.8775.047 2.7785.1-.904-1.1395-1.832-2.1805-2.7605-3.102-.9285.9215-1.857 1.9625-2.762 3.102ZM20 24.9985c1.3805 0 2.702-.0605 3.959-.171.7595-1.0585 1.494-2.1825 2.186-3.3595.6765-1.1495 1.2885-2.313 1.835-3.4695-.5465-1.1565-1.1585-2.3195-1.8345-3.4685-.6925-1.1775-1.4265-2.301-2.1865-3.3595-1.2565-.1115-2.578-.172-3.959-.172-1.381 0-2.703.0605-3.96.1715-.7605 1.0585-1.4955 2.1825-2.188 3.3595-.676 1.1495-1.288 2.313-1.8345 3.4695.5465 1.1565 1.158 2.3195 1.834 3.4685.6925 1.177 1.427 2.301 2.187 3.3595 1.2575.111 2.58.1715 3.9615.1715Zm8.773-8.7935c.5625-1.3545 1.028-2.6845 1.383-3.9565-1.2765-.351-2.6865-.641-4.214-.8535.514.7635 1.0145 1.555 1.496 2.374.477.8095.9205 1.6235 1.335 2.436Zm-17.5485.0005c.414-.8125.858-1.6265 1.334-2.4365.482-.819.983-1.61 1.4975-2.3735-1.5275.212-2.9375.5025-4.214.8535.355 1.272.8205 2.6015 1.3825 3.9565Zm20.3695 7.104c4.038-1.368 6.406-3.378 6.406-5.311 0-1.933-2.368-3.943-6.406-5.311-.4765 1.7025-1.1345 3.4915-1.96 5.3105.8255 1.8195 1.4835 3.6085 1.96 5.3115ZM8.405 23.309c.476-1.702 1.1335-3.491 1.959-5.3095-.8255-1.819-1.4835-3.6085-1.9595-5.311C4.367 14.0565 2 16.066 2 17.9985c0 1.933 2.3675 3.9425 6.405 5.3105Zm17.537 1.293c1.5275-.212 2.9375-.502 4.214-.8535-.3555-1.272-.821-2.602-1.383-3.957-.4145.8125-.8585 1.6265-1.335 2.4365-.4815.819-.982 1.6105-1.496 2.374Zm-11.8875-.0005c-.514-.7635-1.0145-1.5545-1.4965-2.373-.476-.8095-.9195-1.623-1.3335-2.435-.562 1.354-1.027 2.6835-1.382 3.955 1.276.3505 2.6855.6405 4.212.853ZM12.237 34c1.8695 0 4.2405-1.285 6.676-3.457-1.2565-1.2445-2.5025-2.688-3.694-4.2935-2.0715-.2195-4.001-.5805-5.739-1.058-.542 2.449-.6395 4.613-.211 6.214.289 1.08.799 1.8335 1.515 2.24.414.2355.9035.3545 1.453.3545Zm15.5265-.003c.5495 0 1.038-.119 1.4535-.3545.715-.4055 1.2235-1.1575 1.512-2.2365.429-1.6015.3315-3.7655-.2105-6.214-1.7385.4775-3.6685.8385-5.7405 1.058-1.19 1.605-2.4355 3.048-3.6905 4.2925 2.4355 2.17 4.8065 3.454 6.676 3.4545ZM20 29.5185c.9285-.922 1.8565-1.9635 2.761-3.103-.9005.0535-1.7795.1665-2.7195.1665-.9405 0-1.9035-.113-2.8045-.1665.905 1.14 1.834 2.1815 2.763 3.103ZM12.058.0345001c-.8995 0-1.5425.1689999-2.2615.5764999C8.597 1.2915 7.769 2.4565 7.336 4.074c-.48 1.7935-.4385 4.151.118 6.8405C2.7095 12.593 0 15.161 0 17.9985c0 2.838 2.71 5.4055 7.4545 7.084-.5565 2.6895-.598 5.047-.1175 6.8405.4325 1.6165 1.26 2.7815 2.4605 3.463.72.408 1.585.5815 2.484.5815 2.2435 0 4.8765-1.2675 7.719-3.733 2.842 2.463 5.5195 3.762 7.7625 3.7625.8995 0 1.7205-.2065 2.4405-.6145 1.1985-.6795 2.0255-1.843 2.458-3.4585.4805-1.794.439-4.1515-.1175-6.8405 4.7455-1.679 7.456-4.247 7.456-7.085s-2.71-5.406-7.4555-7.0845c.557-2.69.598-5.0475.1175-6.841-.433-1.6155-1.2605-2.779-2.4595-3.4585C29.483.207 28.662 0 27.763 0c-2.2425 0-4.9195 1.2995-7.762 3.7635C17.158 1.2975 14.468.033 12.224.033l-.166.0015001ZM9.86 10.187c-.231-1.162-.386-2.251-.3945-3.206-.0075-.86.1105-1.6085.285-2.2605.2535-.946.684-1.597 1.2795-1.935.338-.192.75-.322 1.2115-.322 1.5905 0 3.6835 1.089 5.9415 3.017C17.0725 6.617 15.987 7.89 14.95 9.273c-1.7925.2-3.5015.5065-5.09.914Zm11.959-4.7055C24.0765 3.555 26.1745 2.5 27.763 2.5c.462 0 .8685.0975 1.207.2895.5945.337 1.0245.9865 1.2775 1.9305.437 1.409.3805 3.282-.109 5.4665-1.5885-.407-3.297-.714-5.089-.913-1.0365-1.3825-2.121-2.6555-3.2305-3.792Zm-3.4825 3.547c.548-.65 1.1045-1.265 1.664-1.839.5595.574 1.1155 1.189 1.663 1.839-.5595-.02-1.116-.03-1.6635-.03-.5475 0-1.1035.01-1.6635.03Zm-2.024 2.62C17.515 11.549 18.754 11.478 20 11.478c1.2455 0 2.4845.071 3.6865.1705.716 1.0095 1.398 2.063 2.028 3.1345.611 1.039 1.1865 2.1195 1.7115 3.215-.5255 1.096-1.101 2.177-1.712 3.216-.6305 1.072-1.312 2.125-2.028 3.1345-1.2015.0995-2.4405.233-3.686.233-1.2465 0-2.486-.134-3.689-.2335-.7165-1.009-1.3985-2.0625-2.029-3.1345-.611-1.0385-1.186-2.119-1.711-3.215.525-1.096 1.1005-2.177 1.7115-3.216.631-1.0715 1.3135-2.125 2.03-3.134Zm12.3985 3.362c-.2745-.509-.556-1.009-.8415-1.495-.285-.4845-.5835-.971-.8925-1.4545.887.151 1.7425.3315 2.557.54-.2335.783-.509 1.589-.823 2.4095ZM10.464 12.601c.8145-.2085 1.67-.389 2.557-.54-.3095.4835-.608.97-.893 1.454-.2855.486-.567.986-.8415 1.495-.314-.8195-.589-1.6255-.8225-2.409Zm19.7185 5.397c.7075-1.581 1.2935-3.146 1.745-4.663C35.379 14.5945 37.5 16.359 37.5 17.9985s-2.121 3.404-5.5725 4.6635c-.452-1.5175-1.0375-3.083-1.745-4.664ZM8.071 22.6615C4.6205 21.402 2.5 19.6375 2.5 17.9985c0-1.639 2.1205-3.4035 5.5705-4.663.4515 1.5175 1.037 3.0825 1.7445 4.6635-.707 1.5805-1.2925 3.1455-1.744 4.6625Zm18.9055 1.275c.309-.484.608-.9705.8925-1.4545.286-.486.5675-.9865.842-1.4955.314.8205.589 1.627.823 2.4105-.815.2075-1.6705.3885-2.5575.5395Zm-16.512-.5405c.2335-.783.5085-1.5885.822-2.408.274.5085.5555 1.0085.841 1.494.2845.484.583.97.8925 1.454-.8865-.1515-1.7415-.332-2.5555-.54ZM12.237 33.5c-.462 0-.868-.0975-1.2065-.2895-.595-.338-1.0255-.9885-1.2785-1.9345-.4155-1.4225-.3685-3.296.109-5.4665 1.588.407 3.296.714 5.0875.913 1.0375 1.383 2.123 2.6565 3.234 3.794-2.2575 1.9285-4.356 2.984-5.9455 2.9835Zm12.812-6.7765c1.792-.1995 3.5005-.506 5.089-.913.5525 2.37.596 4.259.1085 5.466-.2525.9445-.682 1.594-1.276 1.9305-.339.192-.745.2895-1.2065.2895-1.59 0-3.689-1.055-5.946-2.9805 1.11-1.1365 2.1945-2.4095 3.231-3.7925ZM20 28.8085c-.56-.574-1.117-1.1895-1.665-1.84.56.02 1.117.03 1.665.03.5475 0 1.104-.01 1.6635-.03-.5475.6505-1.104 1.266-1.6635 1.84Z"/>
</svg>

<svg width="40" height="36" viewBox="0 0 40 36" fill="none" xmlns="http://www.w3.org/2000/svg">
<path d="M20.5 22C18.5705 22 17 20.43 17 18.5C17 16.57 18.5705 15 20.5 15C22.4295 15 24 16.57 24 18.5C24 20.43 22.4295 22 20.5 22ZM20.5 15.5C18.8455 15.5 17.5 16.8455 17.5 18.5C17.5 20.1545 18.8455 21.5 20.5 21.5C22.1545 21.5 23.5 20.1545 23.5 18.5C23.5 16.8455 22.1545 15.5 20.5 15.5Z" fill="#2A2238"/>
<path d="M12.2355 0.497C14.4825 0.497 17.2335 1.952 20.0015 4.4305C22.769 1.954 25.5185 0.5005 27.7635 0.5005C28.575 0.5005 29.313 0.6855 29.9565 1.05C31.0345 1.661 31.7825 2.7215 32.1795 4.203C32.718 6.1615 32.605 8.573 31.9625 11.243C36.5735 12.7835 39.5 15.214 39.5 17.9985C39.5 20.783 36.5735 23.2135 31.962 24.7545C32.6325 27.641 32.745 30.1175 32.179 31.794C31.782 33.275 31.0345 34.336 29.9575 34.947C29.313 35.312 28.7275 35.4985 27.9165 35.4985H27.708C25.462 35.4985 22.767 34.0435 20 31.568C17.2325 34.046 14.4825 35.5 12.2365 35.5C11.425 35.5 10.687 35.315 10.0435 34.9505C8.9645 34.338 8.216 33.276 7.8195 31.7935C7.2245 29.935 7.3445 27.492 8.0365 24.754C3.426 23.213 0.5 20.783 0.5 17.9985C0.5 15.2145 3.426 12.784 8.036 11.243C7.6925 9.7135 7.473 8.2935 7.4655 6.9985C7.4595 5.9755 7.599 5.024 7.819 4.2035C8.216 2.7205 8.964 1.6585 10.043 1.0465C10.686 0.6815 11.424 0.497 12.2355 0.497ZM9.479 10.8055C11.2175 10.328 13.148 9.967 15.2205 9.747C16.4115 8.142 17.658 6.699 18.9135 5.455C16.4775 3.282 14.1055 1.9965 12.2355 1.9965C11.686 1.9965 11.198 2.1155 10.7835 2.351C10.067 2.7575 9.5575 3.511 9.268 4.5915C8.839 6.1925 8.9365 8.3565 9.479 10.8055ZM30.5195 10.805C31.062 8.356 31.1595 6.1915 30.7305 4.5905C30.4415 3.512 29.932 2.76 29.217 2.3545C28.802 2.119 28.3125 2 27.7635 2C25.895 2 23.5245 3.284 21.089 5.455C22.344 6.699 23.589 8.142 24.779 9.7465C26.8505 9.9665 28.781 10.3275 30.5195 10.805ZM17.2385 9.5815C18.1395 9.528 19.043 9.4815 19.9825 9.4815C20.922 9.4815 21.86 9.5285 22.761 9.5815C21.857 8.442 20.929 7.401 20.0005 6.4795C19.072 7.401 18.1435 8.442 17.2385 9.5815ZM20 24.9985C21.3805 24.9985 22.702 24.938 23.959 24.8275C24.7185 23.769 25.453 22.645 26.145 21.468C26.8215 20.3185 27.4335 19.155 27.98 17.9985C27.4335 16.842 26.8215 15.679 26.1455 14.53C25.453 13.3525 24.719 12.229 23.959 11.1705C22.7025 11.059 21.381 10.9985 20 10.9985C18.619 10.9985 17.297 11.059 16.04 11.17C15.2795 12.2285 14.5445 13.3525 13.852 14.5295C13.176 15.679 12.564 16.8425 12.0175 17.999C12.564 19.1555 13.1755 20.3185 13.8515 21.4675C14.544 22.6445 15.2785 23.7685 16.0385 24.827C17.296 24.938 18.6185 24.9985 20 24.9985ZM28.773 16.205C29.3355 14.8505 29.801 13.5205 30.156 12.2485C28.8795 11.8975 27.4695 11.6075 25.942 11.395C26.456 12.1585 26.9565 12.95 27.438 13.769C27.915 14.5785 28.3585 15.3925 28.773 16.205ZM11.2245 16.2055C11.6385 15.393 12.0825 14.579 12.5585 13.769C13.0405 12.95 13.5415 12.159 14.056 11.3955C12.5285 11.6075 11.1185 11.898 9.842 12.249C10.197 13.521 10.6625 14.8505 11.2245 16.2055ZM31.594 23.3095C35.632 21.9415 38 19.9315 38 17.9985C38 16.0655 35.632 14.0555 31.594 12.6875C31.1175 14.39 30.4595 16.179 29.634 17.998C30.4595 19.8175 31.1175 21.6065 31.594 23.3095ZM8.405 23.309C8.881 21.607 9.5385 19.818 10.364 17.9995C9.5385 16.1805 8.8805 14.391 8.4045 12.6885C4.367 14.0565 2 16.066 2 17.9985C2 19.9315 4.3675 21.941 8.405 23.309ZM25.942 24.602C27.4695 24.39 28.8795 24.1 30.156 23.7485C29.8005 22.4765 29.335 21.1465 28.773 19.7915C28.3585 20.604 27.9145 21.418 27.438 22.228C26.9565 23.047 26.456 23.8385 25.942 24.602ZM14.0545 24.6015C13.5405 23.838 13.04 23.047 12.558 22.2285C12.082 21.419 11.6385 20.6055 11.2245 19.7935C10.6625 21.1475 10.1975 22.477 9.8425 23.7485C11.1185 24.099 12.528 24.389 14.0545 24.6015ZM12.237 34C14.1065 34 16.4775 32.715 18.913 30.543C17.6565 29.2985 16.4105 27.855 15.219 26.2495C13.1475 26.03 11.218 25.669 9.48 25.1915C8.938 27.6405 8.8405 29.8045 9.269 31.4055C9.558 32.4855 10.068 33.239 10.784 33.6455C11.198 33.881 11.6875 34 12.237 34ZM27.7635 33.997C28.313 33.997 28.8015 33.878 29.217 33.6425C29.932 33.237 30.4405 32.485 30.729 31.406C31.158 29.8045 31.0605 27.6405 30.5185 25.192C28.78 25.6695 26.85 26.0305 24.778 26.25C23.588 27.855 22.3425 29.298 21.0875 30.5425C23.523 32.7125 25.894 33.9965 27.7635 33.997ZM20 29.5185C20.9285 28.5965 21.8565 27.555 22.761 26.4155C21.8605 26.469 20.9815 26.582 20.0415 26.582C19.101 26.582 18.138 26.469 17.237 26.4155C18.142 27.5555 19.071 28.597 20 29.5185ZM12.058 0.0345001C11.1585 0.0345001 10.5155 0.2035 9.7965 0.611C8.597 1.2915 7.769 2.4565 7.336 4.074C6.856 5.8675 6.8975 8.225 7.454 10.9145C2.7095 12.593 0 15.161 0 17.9985C0 20.8365 2.71 23.404 7.4545 25.0825C6.898 27.772 6.8565 30.1295 7.337 31.923C7.7695 33.5395 8.597 34.7045 9.7975 35.386C10.5175 35.794 11.3825 35.9675 12.2815 35.9675C14.525 35.9675 17.158 34.7 20.0005 32.2345C22.8425 34.6975 25.52 35.9965 27.763 35.997C28.6625 35.997 29.4835 35.7905 30.2035 35.3825C31.402 34.703 32.229 33.5395 32.6615 31.924C33.142 30.13 33.1005 27.7725 32.544 25.0835C37.2895 23.4045 40 20.8365 40 17.9985C40 15.1605 37.29 12.5925 32.5445 10.914C33.1015 8.224 33.1425 5.8665 32.662 4.073C32.229 2.4575 31.4015 1.294 30.2025 0.6145C29.483 0.207 28.662 0 27.763 0C25.5205 0 22.8435 1.2995 20.001 3.7635C17.158 1.2975 14.468 0.033 12.224 0.033L12.058 0.0345001ZM9.86 10.187C9.629 9.025 9.474 7.936 9.4655 6.981C9.458 6.121 9.576 5.3725 9.7505 4.7205C10.004 3.7745 10.4345 3.1235 11.03 2.7855C11.368 2.5935 11.78 2.4635 12.2415 2.4635C13.832 2.4635 15.925 3.5525 18.183 5.4805C17.0725 6.617 15.987 7.89 14.95 9.273C13.1575 9.473 11.4485 9.7795 9.86 10.187ZM21.819 5.4815C24.0765 3.555 26.1745 2.5 27.763 2.5C28.225 2.5 28.6315 2.5975 28.97 2.7895C29.5645 3.1265 29.9945 3.776 30.2475 4.72C30.6845 6.129 30.628 8.002 30.1385 10.1865C28.55 9.7795 26.8415 9.4725 25.0495 9.2735C24.013 7.891 22.9285 6.618 21.819 5.4815ZM18.3365 9.0285C18.8845 8.3785 19.441 7.7635 20.0005 7.1895C20.56 7.7635 21.116 8.3785 21.6635 9.0285C21.104 9.0085 20.5475 8.9985 20 8.9985C19.4525 8.9985 18.8965 9.0085 18.3365 9.0285ZM16.3125 11.6485C17.515 11.549 18.754 11.478 20 11.478C21.2455 11.478 22.4845 11.549 23.6865 11.6485C24.4025 12.658 25.0845 13.7115 25.7145 14.783C26.3255 15.822 26.901 16.9025 27.426 17.998C26.9005 19.094 26.325 20.175 25.714 21.214C25.0835 22.286 24.402 23.339 23.686 24.3485C22.4845 24.448 21.2455 24.5815 20 24.5815C18.7535 24.5815 17.514 24.4475 16.311 24.348C15.5945 23.339 14.9125 22.2855 14.282 21.2135C13.671 20.175 13.096 19.0945 12.571 17.9985C13.096 16.9025 13.6715 15.8215 14.2825 14.7825C14.9135 13.711 15.596 12.6575 16.3125 11.6485ZM28.711 15.0105C28.4365 14.5015 28.155 14.0015 27.8695 13.5155C27.5845 13.031 27.286 12.5445 26.977 12.061C27.864 12.212 28.7195 12.3925 29.534 12.601C29.3005 13.384 29.025 14.19 28.711 15.0105ZM10.464 12.601C11.2785 12.3925 12.134 12.212 13.021 12.061C12.7115 12.5445 12.413 13.031 12.128 13.515C11.8425 14.001 11.561 14.501 11.2865 15.01C10.9725 14.1905 10.6975 13.3845 10.464 12.601ZM30.1825 17.998C30.89 16.417 31.476 14.852 31.9275 13.335C35.379 14.5945 37.5 16.359 37.5 17.9985C37.5 19.638 35.379 21.4025 31.9275 22.662C31.4755 21.1445 30.89 19.579 30.1825 17.998ZM8.071 22.6615C4.6205 21.402 2.5 19.6375 2.5 17.9985C2.5 16.3595 4.6205 14.595 8.0705 13.3355C8.522 14.853 9.1075 16.418 9.815 17.999C9.108 19.5795 8.5225 21.1445 8.071 22.6615ZM26.9765 23.9365C27.2855 23.4525 27.5845 22.966 27.869 22.482C28.155 21.996 28.4365 21.4955 28.711 20.9865C29.025 21.807 29.3 22.6135 29.534 23.397C28.719 23.6045 27.8635 23.7855 26.9765 23.9365ZM10.4645 23.396C10.698 22.613 10.973 21.8075 11.2865 20.988C11.5605 21.4965 11.842 21.9965 12.1275 22.482C12.412 22.966 12.7105 23.452 13.02 23.936C12.1335 23.7845 11.2785 23.604 10.4645 23.396ZM12.237 33.5C11.775 33.5 11.369 33.4025 11.0305 33.2105C10.4355 32.8725 10.005 32.222 9.752 31.276C9.3365 29.8535 9.3835 27.98 9.861 25.8095C11.449 26.2165 13.157 26.5235 14.9485 26.7225C15.986 28.1055 17.0715 29.379 18.1825 30.5165C15.925 32.445 13.8265 33.5005 12.237 33.5ZM25.049 26.7235C26.841 26.524 28.5495 26.2175 30.138 25.8105C30.6905 28.1805 30.734 30.0695 30.2465 31.2765C29.994 32.221 29.5645 32.8705 28.9705 33.207C28.6315 33.399 28.2255 33.4965 27.764 33.4965C26.174 33.4965 24.075 32.4415 21.818 30.516C22.928 29.3795 24.0125 28.1065 25.049 26.7235ZM20 28.8085C19.44 28.2345 18.883 27.619 18.335 26.9685C18.895 26.9885 19.452 26.9985 20 26.9985C20.5475 26.9985 21.104 26.9885 21.6635 26.9685C21.116 27.619 20.5595 28.2345 20 28.8085Z" fill="#2A2238"/>
</svg>
